TileServer und Tiles/svg/9/88_32.svg

<?xml version='1.0' encoding='UTF-8' standalone='no'?>
<svg xmlns="http://www.w3.org/2000/svg" width="497pt" viewBox="0 0 497 279" xmlns:xlink="http://www.w3.org/1999/xlink" height="279pt">
 <defs style="stroke:none;" overflow="visible">
  <path id="glyph0-4" d="M 4.59375 0.1875 C 3.414062 0.1875 2.503906 -0.15625 1.859375 -0.84375 C 1.222656 -1.53125 0.90625 -2.460938 0.90625 -3.640625 C 0.90625 -4.453125 1.019531 -5.253906 1.25 -6.046875 C 1.488281 -6.835938 1.828125 -7.5625 2.265625 -8.21875 C 2.710938 -8.875 3.25 -9.394531 3.875 -9.78125 C 4.507812 -10.175781 5.21875 -10.375 6 -10.375 C 6.96875 -10.375 7.691406 -10.164062 8.171875 -9.75 C 8.660156 -9.332031 8.90625 -8.75 8.90625 -8 C 8.90625 -7.34375 8.695312 -6.738281 8.28125 -6.1875 C 7.875 -5.644531 7.234375 -5.210938 6.359375 -4.890625 C 5.484375 -4.566406 4.351562 -4.40625 2.96875 -4.40625 L 2.640625 -4.40625 C 2.628906 -4.289062 2.617188 -4.171875 2.609375 -4.046875 C 2.609375 -3.921875 2.609375 -3.804688 2.609375 -3.703125 C 2.609375 -2.929688 2.796875 -2.320312 3.171875 -1.875 C 3.554688 -1.425781 4.132812 -1.203125 4.90625 -1.203125 C 5.382812 -1.203125 5.835938 -1.269531 6.265625 -1.40625 C 6.703125 -1.539062 7.171875 -1.726562 7.671875 -1.96875 L 7.671875 -0.546875 C 7.191406 -0.335938 6.71875 -0.160156 6.25 -0.015625 C 5.789062 0.117188 5.238281 0.1875 4.59375 0.1875 Z M 2.890625 -5.75 L 3.015625 -5.75 C 3.773438 -5.75 4.476562 -5.816406 5.125 -5.953125 C 5.769531 -6.085938 6.289062 -6.3125 6.6875 -6.625 C 7.082031 -6.9375 7.28125 -7.347656 7.28125 -7.859375 C 7.28125 -8.191406 7.164062 -8.460938 6.9375 -8.671875 C 6.71875 -8.878906 6.375 -8.984375 5.90625 -8.984375 C 5.300781 -8.984375 4.71875 -8.703125 4.15625 -8.140625 C 3.59375 -7.578125 3.171875 -6.78125 2.890625 -5.75 Z M 2.890625 -5.75 "/>
  <path id="glyph0-3" d="M 0.515625 0 L 3.578125 -14.4375 L 5.265625 -14.4375 L 4.03125 -8.703125 C 3.8125 -7.691406 3.625 -6.910156 3.46875 -6.359375 C 3.3125 -5.804688 3.203125 -5.441406 3.140625 -5.265625 L 3.171875 -5.265625 L 8 -10.1875 L 9.96875 -10.1875 L 5.609375 -5.8125 L 8.328125 0 L 6.484375 0 L 4.328125 -4.765625 L 2.96875 -3.6875 L 2.203125 0 Z M 0.515625 0 "/>
  <path id="glyph0-2" d="M 3.671875 0.1875 C 2.859375 0.1875 2.191406 -0.101562 1.671875 -0.6875 C 1.160156 -1.28125 0.90625 -2.144531 0.90625 -3.28125 C 0.90625 -4.238281 1.03125 -5.144531 1.28125 -6 C 1.53125 -6.851562 1.875 -7.601562 2.3125 -8.25 C 2.757812 -8.90625 3.285156 -9.421875 3.890625 -9.796875 C 4.503906 -10.179688 5.175781 -10.375 5.90625 -10.375 C 6.582031 -10.375 7.128906 -10.195312 7.546875 -9.84375 C 7.960938 -9.488281 8.269531 -9.078125 8.46875 -8.609375 L 8.5625 -8.609375 L 9.171875 -10.1875 L 10.453125 -10.1875 L 8.28125 0 L 6.953125 0 L 7.203125 -1.875 L 7.125 -1.875 C 6.695312 -1.320312 6.191406 -0.835938 5.609375 -0.421875 C 5.023438 -0.015625 4.378906 0.1875 3.671875 0.1875 Z M 4.21875 -1.203125 C 4.6875 -1.203125 5.144531 -1.367188 5.59375 -1.703125 C 6.039062 -2.046875 6.445312 -2.507812 6.8125 -3.09375 C 7.175781 -3.675781 7.457031 -4.328125 7.65625 -5.046875 C 7.757812 -5.421875 7.828125 -5.757812 7.859375 -6.0625 C 7.890625 -6.375 7.90625 -6.664062 7.90625 -6.9375 C 7.90625 -7.53125 7.738281 -8.015625 7.40625 -8.390625 C 7.082031 -8.773438 6.640625 -8.96875 6.078125 -8.96875 C 5.585938 -8.96875 5.128906 -8.8125 4.703125 -8.5 C 4.285156 -8.1875 3.921875 -7.757812 3.609375 -7.21875 C 3.296875 -6.6875 3.050781 -6.078125 2.875 -5.390625 C 2.707031 -4.710938 2.625 -4 2.625 -3.25 C 2.625 -2.5625 2.757812 -2.046875 3.03125 -1.703125 C 3.3125 -1.367188 3.707031 -1.203125 4.21875 -1.203125 Z M 4.21875 -1.203125 "/>
  <path id="glyph0-1" d="M 0.78125 0 L 3.640625 -13.5625 L 5.34375 -13.5625 L 2.78125 -1.515625 L 7.984375 -1.515625 L 7.65625 0 Z M 0.78125 0 "/>
  <path id="glyph0-0" d="M 1.78125 0 L 1.78125 -13.5625 L 9.59375 -13.5625 L 9.59375 0 Z M 2.75 -0.96875 L 8.625 -0.96875 L 8.625 -12.59375 L 2.75 -12.59375 Z M 2.75 -0.96875 "/>
 </defs>
 <image width="497" xlink:href="svg/9/88_32.jpg" height="279"/>
 <g>
  <path d="M 193.308594 22.847656 L 196.167969 9.285156 L 197.871094 9.285156 L 195.308594 21.332031 L 200.511719 21.332031 L 200.183594 22.847656 Z M 193.308594 22.847656 " transform=" rotate(  340 211.518 19.848) " style="fill:none;stroke-width:2;stroke-linecap:butt;stroke-linejoin:round;stroke:rgb(100%,100%,100%);stroke-opacity:0.6;stroke-miterlimit:10;"/>
  <path d="M 205.28125 23.035156 C 204.46875 23.035156 203.800781 22.746094 203.28125 22.160156 C 202.769531 21.566406 202.515625 20.703125 202.515625 19.566406 C 202.515625 18.609375 202.640625 17.703125 202.890625 16.847656 C 203.140625 15.996094 203.484375 15.246094 203.921875 14.597656 C 204.367188 13.941406 204.894531 13.425781 205.5 13.050781 C 206.113281 12.667969 206.785156 12.472656 207.515625 12.472656 C 208.191406 12.472656 208.738281 12.652344 209.15625 13.003906 C 209.570312 13.359375 209.878906 13.769531 210.078125 14.238281 L 210.171875 14.238281 L 210.78125 12.660156 L 212.0625 12.660156 L 209.890625 22.847656 L 208.5625 22.847656 L 208.8125 20.972656 L 208.734375 20.972656 C 208.304688 21.527344 207.800781 22.011719 207.21875 22.425781 C 206.632812 22.832031 205.988281 23.035156 205.28125 23.035156 Z M 205.828125 21.644531 C 206.296875 21.644531 206.753906 21.480469 207.203125 21.144531 C 207.648438 20.800781 208.054688 20.339844 208.421875 19.753906 C 208.785156 19.171875 209.066406 18.519531 209.265625 17.800781 C 209.367188 17.425781 209.4375 17.089844 209.46875 16.785156 C 209.5 16.472656 209.515625 16.183594 209.515625 15.910156 C 209.515625 15.316406 209.347656 14.832031 209.015625 14.457031 C 208.691406 14.074219 208.25 13.878906 207.6875 13.878906 C 207.195312 13.878906 206.738281 14.035156 206.3125 14.347656 C 205.894531 14.660156 205.53125 15.089844 205.21875 15.628906 C 204.90625 16.160156 204.660156 16.769531 204.484375 17.457031 C 204.316406 18.136719 204.234375 18.847656 204.234375 19.597656 C 204.234375 20.285156 204.367188 20.800781 204.640625 21.144531 C 204.921875 21.480469 205.316406 21.644531 205.828125 21.644531 Z M 205.828125 21.644531 " transform=" rotate(  340 211.518 19.848) " style="fill:none;stroke-width:2;stroke-linecap:butt;stroke-linejoin:round;stroke:rgb(100%,100%,100%);stroke-opacity:0.6;stroke-miterlimit:10;"/>
  <path d="M 212.917969 22.847656 L 215.980469 8.410156 L 217.667969 8.410156 L 216.433594 14.144531 C 216.214844 15.15625 216.027344 15.9375 215.871094 16.488281 C 215.714844 17.042969 215.605469 17.40625 215.542969 17.582031 L 215.574219 17.582031 L 220.402344 12.660156 L 222.371094 12.660156 L 218.011719 17.035156 L 220.730469 22.847656 L 218.886719 22.847656 L 216.730469 18.082031 L 215.371094 19.160156 L 214.605469 22.847656 Z M 212.917969 22.847656 " transform=" rotate(  340 211.518 19.848) " style="fill:none;stroke-width:2;stroke-linecap:butt;stroke-linejoin:round;stroke:rgb(100%,100%,100%);stroke-opacity:0.6;stroke-miterlimit:10;"/>
  <path d="M 226.019531 23.035156 C 224.839844 23.035156 223.929688 22.691406 223.285156 22.003906 C 222.648438 21.316406 222.332031 20.386719 222.332031 19.207031 C 222.332031 18.394531 222.445312 17.59375 222.675781 16.800781 C 222.914062 16.011719 223.253906 15.285156 223.691406 14.628906 C 224.136719 13.972656 224.675781 13.453125 225.300781 13.066406 C 225.933594 12.671875 226.644531 12.472656 227.425781 12.472656 C 228.394531 12.472656 229.117188 12.683594 229.597656 13.097656 C 230.085938 13.515625 230.332031 14.097656 230.332031 14.847656 C 230.332031 15.503906 230.121094 16.109375 229.707031 16.660156 C 229.300781 17.203125 228.660156 17.636719 227.785156 17.957031 C 226.910156 18.28125 225.777344 18.441406 224.394531 18.441406 L 224.066406 18.441406 C 224.054688 18.558594 224.042969 18.675781 224.035156 18.800781 C 224.035156 18.925781 224.035156 19.042969 224.035156 19.144531 C 224.035156 19.917969 224.222656 20.527344 224.597656 20.972656 C 224.980469 21.421875 225.558594 21.644531 226.332031 21.644531 C 226.808594 21.644531 227.261719 21.578125 227.691406 21.441406 C 228.128906 21.308594 228.597656 21.121094 229.097656 20.878906 L 229.097656 22.300781 C 228.617188 22.511719 228.144531 22.6875 227.675781 22.832031 C 227.214844 22.964844 226.664062 23.035156 226.019531 23.035156 Z M 224.316406 17.097656 L 224.441406 17.097656 C 225.199219 17.097656 225.902344 17.03125 226.550781 16.894531 C 227.195312 16.761719 227.714844 16.535156 228.113281 16.222656 C 228.507812 15.910156 228.707031 15.5 228.707031 14.988281 C 228.707031 14.65625 228.589844 14.386719 228.363281 14.175781 C 228.144531 13.96875 227.800781 13.863281 227.332031 13.863281 C 226.726562 13.863281 226.144531 14.144531 225.582031 14.707031 C 225.019531 15.269531 224.597656 16.066406 224.316406 17.097656 Z M 224.316406 17.097656 " transform=" rotate(  340 211.518 19.848) " style="fill:none;stroke-width:2;stroke-linecap:butt;stroke-linejoin:round;stroke:rgb(100%,100%,100%);stroke-opacity:0.6;stroke-miterlimit:10;"/>
  <g transform=" rotate(  340 211.518 19.848) " style="fill:rgb(30.196078%,50.196078%,70.196078%);fill-opacity:1;">
   <use xlink:href="#glyph0-1" y="22.84798" x="192.527997"/>
   <use xlink:href="#glyph0-2" y="22.84798" x="201.609997"/>
   <use xlink:href="#glyph0-3" y="22.84798" x="212.401997"/>
   <use xlink:href="#glyph0-4" y="22.84798" x="221.426997"/>
  </g>
 </g>
</svg>

<svg xmlns="http://www.w3.org/2000/svg" xmlns:xlink="http://www.w3.org/1999/xlink" viewBox="0 0 497 279"> <defs overflow="visible" style="stroke:none">  <path id="d" d="M4.6.2c-1.2 0-2.1-.4-2.7-1-.7-.7-1-1.7-1-2.8.1-.9.1-1.7.3-2.4a8.1 8.1 0 0 1 1.1-2.2c.5-.8 1-1.2 1.7-1.6a4 4 0 0 1 2-.6c1 0 1.7.2 2.2.7.5.4.7.9.7 1.7a3 3 0 0 1-.6 1.8c-.4.6-1 1-2 1.3-.7.3-1.9.5-3.3.5h-.4v.7c0 .8.2 1.4.6 1.8.4.5 1 .7 1.7.7.5 0 1.1 0 1.4-.2L7.7-2v1.5L6.2 0a6 6 0 0 1-1.5.2Zm-1.7-6H3c.8 0 1.5 0 2.1-.2.7 0 1.2-.3 1.6-.6.3-.4.6-.7.6-1.4 0-.2-.1-.5-.4-.7-.2-.2-.5-.3-.9-.3-.7 0-1.3.3-1.8 1-.6.4-1 1.2-1.3 2.2Zm0 0"/>  <path id="c" d="m.5 0 3-14.4h1.9L4-8.7a40.5 40.5 0 0 1-.9 3.4L8-10.2h2L5.6-5.8 8.3 0H6.5L4.3-4.8 3-3.7 2.2 0Zm0 0"/>  <path id="b" d="M3.7.2c-.8 0-1.5-.3-2-.9C1.2-1.3.9-2 .9-3.3 1-4.3 1-5 1.3-6a8 8 0 0 1 1-2.3c.5-.5 1-1 1.7-1.5a3.7 3.7 0 0 1 1.9-.6c.7 0 1.2.2 1.6.6.5.3.8.7 1 1.2l.8-1.6h1.2L8.3 0H7l.2-1.9L5.5-.4a3.3 3.3 0 0 1-1.9.6Zm.5-1.4c.5 0 1-.2 1.4-.5.4-.3.8-.8 1.2-1.4A7.4 7.4 0 0 0 8-6.9c0-.6-.3-1.1-.6-1.5-.3-.4-.8-.6-1.3-.6s-1.1.2-1.4.5c-.4.3-.8.7-1 1.3a7 7 0 0 0-.9 1.8 8.9 8.9 0 0 0-.2 2.2c0 .6.2 1.2.4 1.4.3.4.7.6 1.2.6Zm0 0"/>  <path id="a" d="m.8 0 2.8-13.6h1.7l-2.5 12H8L7.7 0Zm0 0"/>  <path d="M1.8 0v-13.6h7.8V0Zm1-1h5.8v-11.6H2.8Zm0 0"/> </defs> <image xlink:href="svg/9/88_32.jpg" width="497" height="279"/> <path d="m193.3 22.8 2.9-13.5h1.7l-2.6 12h5.2l-.3 1.5Zm12 .2c-.8 0-1.5-.3-2-.8-.5-.6-.8-1.5-.8-2.6 0-1 .1-1.9.5-2.8a8 8 0 0 1 .9-2.2c.5-.7 1.1-1.2 1.6-1.5a3.7 3.7 0 0 1 2-.6c.7 0 1.2.2 1.7.5l.8 1.2.9-1.5h1.1l-2.1 10.1h-1.3l.2-1.8-1.7 1.4a3.3 3.3 0 0 1-1.9.6Zm.5-1.4c.5 0 1-.1 1.4-.5.4-.3.9-.8 1.2-1.3a7.4 7.4 0 0 0 1.1-3.9c0-.6-.2-.9-.5-1.4-.3-.5-.8-.6-1.3-.6s-1 .1-1.4.4c-.3.4-.8.8-1 1.3a7 7 0 0 0-.9 1.9 8.9 8.9 0 0 0-.2 2.1c0 .7.2 1.2.4 1.5.4.4.7.5 1.2.5Zm7.2 1.2 3-14.4h1.7l-1.3 5.7a40.5 40.5 0 0 1-.9 3.5l5-5h1.9L218 17l2.7 5.8H219l-2.3-4.7-1.3.9-.8 3.9Zm13 .2c-1.2 0-2-.3-2.7-1-.7-.7-1-1.6-1-2.8 0-.8.1-1.6.4-2.4a8.1 8.1 0 0 1 1-2.2c.3-.6 1-1.1 1.6-1.5a4 4 0 0 1 2.1-.6c1 0 1.7.2 2.2.5.5.5.7 1.1.7 1.8a3 3 0 0 1-.6 1.9c-.4.5-1 1-2 1.3-.7.3-1.9.4-3.2.4h-.5v.7c0 .9.1 1.4.5 1.9.5.4 1.1.6 1.8.6.5 0 1 0 1.4-.2.3 0 .9-.3 1.3-.4v1.3l-1.3.5a6 6 0 0 1-1.7.2Zm-1.7-5.9h.1c.8 0 1.6 0 2.2-.2.6-.1 1.1-.4 1.4-.7.5-.2.7-.7.7-1.2 0-.3-.1-.6-.3-.8-.4-.2-.6-.3-1-.3-.8 0-1.4.1-1.9.8-.5.6-.9 1.4-1.2 2.4Zm0 0" style="fill:none;stroke-width:2;stroke-linecap:butt;stroke-linejoin:round;stroke:#fff;stroke-opacity:.6;stroke-miterlimit:10" transform=" rotate(  340 211.518 19.848) "/> <g style="fill:#4d80b3;fill-opacity:1" transform=" rotate(  340 211.518 19.848) ">  <use xlink:href="#a" x="192.5" y="22.8"/>  <use xlink:href="#b" x="201.6" y="22.8"/>  <use xlink:href="#c" x="212.4" y="22.8"/>  <use xlink:href="#d" x="221.4" y="22.8"/> </g></svg>
